X: 1192
M: 6/8
L: 1/8
K: A
[|\
cde ef=g | fed cBA | cde ef^g | gfg a2A |\
f3 a3 | g2a f2a | c'2a f2a | ggg g2c |\
f3 a3 | g2a f2a | c'2a f2f | gfg "^da Capo"f2z |]

